X: 9702
T: Deck The Halls
R: hornpipe
M: 4/4
K: Gmajor
|:d>cBA|GABG|1 A/B/c/A/B>A|GFGB/c/:|2 A/B/c/A/B>A|GFGD||
A>BcA|B>cdA|B/c/de/f/g|fedB/c/|d>cBA|GABG|e>e d>c|BAG2||

